X:8
T:Flowers of Edinburgh, The
R:hornpipe
Z:id:hn-hornpipe-8
M:C|
K:G
GE|D2DE ~G3A|BABd cBAG|FGFE DEFE|D2cA BAGE|
D2DE GFGA|BGBd efge|dcBA GFGA|B2G2 G2:|
|:(3def|g2gf gbag|f2fe fagf|edef gfed|Beed e2ge|
dBGB d2 (3Bcd|egfa g2ge|dcBA GFGA|B2G2 G2:|
<end>
<start>
